dist/assets/images/icons/ico-slide-1.svg

<svg width="24" height="24" viewBox="0 0 24 24" fill="none" xmlns="http://www.w3.org/2000/svg">
<path fill-rule="evenodd" clip-rule="evenodd" d="M4.71407 7.41799L1.32269 22.3401H21.9051L18.5137 7.41799H4.71407ZM19.3565 6.36218H3.87129L0 23.3959H23.2278L19.3565 6.36218Z" fill="#DF0112"/>
<path fill-rule="evenodd" clip-rule="evenodd" d="M16.1827 13.0962L10.5818 17.9503L7.42566 15.5832L8.05914 14.7385L10.534 16.5946L15.4912 12.2984L16.1827 13.0962Z" fill="#0000FF"/>
<path fill-rule="evenodd" clip-rule="evenodd" d="M11.6138 5.30638C12.78 5.30638 13.7254 4.36098 13.7254 3.19477C13.7254 2.02855 12.78 1.08315 11.6138 1.08315C10.4476 1.08315 9.50222 2.02855 9.50222 3.19477C9.50222 4.36098 10.4476 5.30638 11.6138 5.30638ZM11.6138 6.36219C13.3632 6.36219 14.7813 4.94409 14.7813 3.19477C14.7813 1.44545 13.3632 0.0273438 11.6138 0.0273438C9.86451 0.0273438 8.44641 1.44545 8.44641 3.19477C8.44641 4.94409 9.86451 6.36219 11.6138 6.36219Z" fill="#DF0112"/>
</svg>

<svg width="24" height="24" fill="none" xmlns="http://www.w3.org/2000/svg"><path fill-rule="evenodd" clip-rule="evenodd" d="M4.714 7.418L1.323 22.34h20.582L18.514 7.418h-13.8zm14.643-1.056H3.87L0 23.396h23.228L19.356 6.362z" fill="#DF0112"/><path fill-rule="evenodd" clip-rule="evenodd" d="M16.183 13.096l-5.601 4.854-3.156-2.367.633-.845 2.475 1.857 4.957-4.297.692.798z" fill="#00F"/><path fill-rule="evenodd" clip-rule="evenodd" d="M11.614 5.306a2.112 2.112 0 100-4.223 2.112 2.112 0 000 4.223zm0 1.056a3.167 3.167 0 100-6.335 3.167 3.167 0 000 6.335z" fill="#DF0112"/></svg>
